symbols/web/open_in_new/materialsymbolsrounded/open_in_new_wght600gradN25_40px.svg

<svg xmlns="http://www.w3.org/2000/svg" height="40" width="40"><path d="M8.125 35.417q-1.458 0-2.5-1.042t-1.042-2.5V8.125q0-1.458 1.042-2.5t2.5-1.042h9.458q.709 0 1.229.521.521.521.521 1.271 0 .708-.521 1.229-.52.521-1.229.521H8.125v23.75h23.75v-9.458q0-.709.521-1.229.521-.521 1.271-.521.708 0 1.229.521.521.52.521 1.229v9.458q0 1.458-1.042 2.5t-2.5 1.042Zm7.292-10.834q-.5-.541-.521-1.229-.021-.687.521-1.229l14-14H23.75q-.75 0-1.271-.521-.521-.521-.521-1.271 0-.708.521-1.229.521-.521 1.271-.521h9.917q.75 0 1.25.5t.5 1.25v9.917q0 .75-.521 1.271-.521.521-1.271.521-.708 0-1.229-.521-.521-.521-.521-1.271v-5.667l-14 14.042q-.5.5-1.208.479-.709-.021-1.25-.521Z"/></svg>

<svg xmlns="http://www.w3.org/2000/svg" height="40" width="40"><path d="M8.125 35.417Q6.667 35.417 5.625 34.375Q4.583 33.333 4.583 31.875V8.125Q4.583 6.667 5.625 5.625Q6.667 4.583 8.125 4.583H17.583Q18.292 4.583 18.812 5.104Q19.333 5.625 19.333 6.375Q19.333 7.083 18.812 7.604Q18.292 8.125 17.583 8.125H8.125Q8.125 8.125 8.125 8.125Q8.125 8.125 8.125 8.125V31.875Q8.125 31.875 8.125 31.875Q8.125 31.875 8.125 31.875H31.875Q31.875 31.875 31.875 31.875Q31.875 31.875 31.875 31.875V22.417Q31.875 21.708 32.396 21.188Q32.917 20.667 33.667 20.667Q34.375 20.667 34.896 21.188Q35.417 21.708 35.417 22.417V31.875Q35.417 33.333 34.375 34.375Q33.333 35.417 31.875 35.417ZM15.417 24.583Q14.917 24.042 14.896 23.354Q14.875 22.667 15.417 22.125L29.417 8.125H23.75Q23 8.125 22.479 7.604Q21.958 7.083 21.958 6.333Q21.958 5.625 22.479 5.104Q23 4.583 23.75 4.583H33.667Q34.417 4.583 34.917 5.083Q35.417 5.583 35.417 6.333V16.25Q35.417 17 34.896 17.521Q34.375 18.042 33.625 18.042Q32.917 18.042 32.396 17.521Q31.875 17 31.875 16.25V10.583L17.875 24.625Q17.375 25.125 16.667 25.104Q15.958 25.083 15.417 24.583Z"/></svg>
